X:1
T:Title
%%score ( 1 2 ) { 3 | 4 }
L:1/8
Q:1/4=106
M:4/4
K:Ab
V:1 treble nm="Grand Piano, Soprano"
V:2 treble 
V:3 bass nm="Choir Pad, Even Now, George Cooper"
V:4 bass 
V:1
 [Ec]2 [CE]2 [Ec]3 [DB] | [CB]2 [CA]2 [CE]4 | [Fd]2 [DF]2 [Ed]3 [Ec] | [=Dc]2 [DB]2 [DF]4 | %4
w: By~Wiliam~H.~Friday,~Jr. * * *||||
 E2 [Ed]2 [Ec]2 [DB]2 | [DB]2 [CA]2 [Ed]4 | [EB]4 [=DB]4 | [DB]6 z2 | [Ec]2 [CE]2 [Ec]3 [DB] | %9
w: |||||
 [CB]2 [CA]2 [CE]4 | [Fd]2 [DF]2 [Ed]3 [Ec] | [=Dc]2 [DB]2 [DF]4 | E2 [Ed]2 [Ec]2 [DB]2 | %13
w: ||||
 [DB]2 [CA]2 [Ec]4 | [=DB]4 [_DB]4 | [CA]6 [CE][CE] | [DB]3 [C=A] [DB]2 [Ec]2 | [CA]6 EE | %18
w: |||||
 [Ed]3 [Ec] [Ed]2 [Ee]2 | [Ec]6 [Ee]2 | [Ee]3 [Ed] [Ec]2 [EA]2 | z2 c2 z4 | %22
w: ||||
 [EA]3 [CE] [DB]2 [Ec]2 | [CA]8 |] %24
w: ||
V:2
 x8 | x8 | x8 | x8 | x8 | x8 | x8 | x8 | x8 | x8 | x8 | x8 | x8 | x8 | x8 | x8 | x8 | x8 | x8 | %19
 x8 | x8 | [EB]2 E_G [Fd]2 [Fc][FB] | x8 | x8 |] %24
V:3
 A,2 A,2 A,3 G, | A,2 A,2 A,4 | A,2 A,2 =A,3 A, | B,2 F,2 B,2 A,2 | G,2 B,2 A,2 G,2 | A,2 A,2 A,4 | %6
 G,4 A,4 | G,6 z2 | A,2 A,2 G,3 G, | A,2 A,2 A,4 | A,2 A,2 =A,3 A, | B,2 F,2 B,2 A,2 | %12
 G,2 B,2 A,2 G,2 | A,2 A,2 A,4 | F,4 G,4 | A,6 A,A, | G,3 G, G,2 G,2 | A,6 CC | %18
 B,3 =A, B,2[K:treble] C2 | A,6 C2 | C3 B,[K:bass] A,2 A,2 | G,2 A,2 A,2 ED | C3 A, G,2 G,2 | %23
 A,8 |] %24
V:4
 A,,2 A,,2 E,3 E, | A,,2 A,,2 A,,4 | D,2 D,2 F,3 F, | B,,2 B,,2 B,,4 | E,2 E,2 E,2 E,2 | %5
 A,,2 A,,2 A,,4 | B,,4 B,,4 | E,6 z2 | A,,2 A,,2 E,3 E, | A,,2 A,,2 A,,4 | D,2 D,2 F,3 F, | %11
 B,,2 B,,2 B,,4 | E,2 E,2 E,2 E,2 | A,,2 A,,2 A,,4 | B,,4 E,4 | A,,6 A,,A,, | E,3 E, E,2 E,2 | %17
 A,,6 A,A, | E,3 E, E,2 E,2 | z4 z2 A,2 | A,3 A, z2 C,2 | E,2 z2 D,2 D,D, | E,3 E, E,2 E,2 | %23
 A,,8 |] %24

